X:1
T:Young Jockey. SenH.127
T:Young Jockey. SenH.127
T:in Hand C
C:in Hand C
L:1/8
Q:1/4=100
M:2/2
K:G
V:1 treble 
V:1
 d | g2 (bg) (d'a) (gf) | g2 c'b a2 z f | (gd)(de) (dB)(AG) | A2 z d g2 (bg) | (d'a) (gf) g2 c'b | %6
 a2 z a (d'^c') (d'a) | (gf)(ed) d2 z || d | (f>gaf) (ge) z e | (f>gef) (e^d) z b | %11
 (bg) (c'/d'/b) (ag)(fe) | e2 z d g>abg | (fe) z e a>bc'a | (gf) z d' (d'/c'/b) (b/a/g) | %15
 (g/f/e) z e' (e'/d'/c') (c'/b/a) | a/g/f z d' (a/g/f) g>a | (b2 a>)g g2 z |] %18

